public/favicon/favicon.svg

<svg xmlns="http://www.w3.org/2000/svg" width="1024" height="1024"><svg xmlns="http://www.w3.org/2000/svg" width="1024" height="1024" fill="none" viewBox="0 0 1024 1024"><path fill="#FF3030" d="M155.905 277.666v209.976h-21.027v-98.229H21.028v98.229H0V277.666h21.028v94.324h113.85v-94.324h21.027ZM319.534 437.777l-47.763-130.973-47.763 130.973-18.324 49.865h-22.229l76.601-207.273h23.731l76.3 207.273h-22.229l-18.324-49.865ZM408.855 470.52h75.399v17.122h-96.427V277.666h21.028V470.52ZM529.283 470.52h75.399v17.122h-96.427V277.666h21.028V470.52ZM649.711 277.666v209.976h-21.028V277.666h21.028ZM849.629 487.642h-21.028L712.348 311.01v176.632h-21.027V277.666h21.027l116.253 176.332V277.666h21.028v209.976ZM993.66 490.045c-9.012 0-16.422-2.603-22.229-7.81-5.608-5.407-8.411-12.016-8.411-19.826 0-8.011 2.803-14.72 8.411-20.127 5.807-5.407 13.217-8.11 22.229-8.11 8.81 0 16.02 2.703 21.63 8.11 5.81 5.407 8.71 12.116 8.71 20.127 0 7.81-2.9 14.419-8.71 19.826-5.61 5.207-12.82 7.81-21.63 7.81ZM247.379 533.555v211.779h-58.878V628.48l-39.952 116.854H99.284L59.03 627.579v117.755H.153V533.555h71.194l53.17 137.582 51.968-137.582h70.894ZM333.764 580.718v34.545h67.589v44.759h-67.589v38.15h76.601v47.162H274.886V533.555h135.479v47.163h-76.601ZM517.261 533.555c22.229 0 41.655 4.506 58.277 13.518 16.822 8.812 29.739 21.228 38.751 37.249 9.011 16.021 13.517 34.346 13.517 54.973 0 20.427-4.606 38.651-13.818 54.672-9.012 16.021-21.929 28.637-38.751 37.85-16.622 9.011-35.947 13.517-57.976 13.517H433.45V533.555h83.811Zm-4.506 159.811c17.223 0 30.74-4.706 40.553-14.119 9.813-9.412 14.72-22.73 14.72-39.952 0-17.423-4.907-30.841-14.72-40.253-9.813-9.613-23.33-14.419-40.553-14.419h-20.427v108.743h20.427ZM707.216 533.555v211.779h-58.877V533.555h58.877ZM859.485 697.477l-65.87 28.037-11.415 19.82h-61.881l77.202-211.779h67.889l76.901 211.779h-62.182l-20.644-47.857Zm-7.363-47.857-20.957-52.381-26.9 78.15 47.857-25.769Z"/></svg><style>@media (prefers-color-scheme:light){:root{filter:none}}@media (prefers-color-scheme:dark){:root{filter:none}}</style></svg>

<svg xmlns="http://www.w3.org/2000/svg" version="1.1" xmlns:xlink="http://www.w3.org/1999/xlink" xmlns:svgjs="http://svgjs.dev/svgjs" width="1024" height="1024"><svg width="1024" height="1024" viewBox="0 0 1024 1024" fill="none" xmlns="http://www.w3.org/2000/svg">
<path d="M155.905 277.666V487.642H134.878V389.413H21.0277V487.642H0V277.666H21.0277V371.99H134.878V277.666H155.905Z" fill="#FF3030"></path>
<path d="M319.534 437.777L271.771 306.804L224.008 437.777L205.684 487.642H183.455L260.056 280.369H283.787L360.087 487.642H337.858L319.534 437.777Z" fill="#FF3030"></path>
<path d="M408.855 470.52H484.254V487.642H387.827V277.666H408.855V470.52Z" fill="#FF3030"></path>
<path d="M529.283 470.52H604.682V487.642H508.255V277.666H529.283V470.52Z" fill="#FF3030"></path>
<path d="M649.711 277.666V487.642H628.683V277.666H649.711Z" fill="#FF3030"></path>
<path d="M849.629 487.642H828.601L712.348 311.01V487.642H691.321V277.666H712.348L828.601 453.998V277.666H849.629V487.642Z" fill="#FF3030"></path>
<path d="M993.66 490.045C984.648 490.045 977.238 487.442 971.431 482.235C965.823 476.828 963.02 470.219 963.02 462.409C963.02 454.398 965.823 447.689 971.431 442.282C977.238 436.875 984.648 434.172 993.66 434.172C1002.47 434.172 1009.68 436.875 1015.29 442.282C1021.1 447.689 1024 454.398 1024 462.409C1024 470.219 1021.1 476.828 1015.29 482.235C1009.68 487.442 1002.47 490.045 993.66 490.045Z" fill="#FF3030"></path>
<path d="M247.379 533.555V745.334H188.501V628.48L148.549 745.334H99.2838L59.0308 627.579V745.334H0.153238V533.555H71.347L124.517 671.137L176.485 533.555H247.379Z" fill="#FF3030"></path>
<path d="M333.764 580.718V615.263H401.353V660.022H333.764V698.172H410.365V745.334H274.886V533.555H410.365V580.718H333.764Z" fill="#FF3030"></path>
<path d="M517.261 533.555C539.49 533.555 558.916 538.061 575.538 547.073C592.36 555.885 605.277 568.301 614.289 584.322C623.3 600.343 627.806 618.668 627.806 639.295C627.806 659.722 623.2 677.946 613.988 693.967C604.976 709.988 592.059 722.604 575.237 731.817C558.615 740.828 539.29 745.334 517.261 745.334H433.45V533.555H517.261ZM512.755 693.366C529.978 693.366 543.495 688.66 553.308 679.247C563.121 669.835 568.028 656.517 568.028 639.295C568.028 621.872 563.121 608.454 553.308 599.042C543.495 589.429 529.978 584.623 512.755 584.623H492.328V693.366H512.755Z" fill="#FF3030"></path>
<path d="M707.216 533.555V745.334H648.339V533.555H707.216Z" fill="#FF3030"></path>
<path d="M859.485 697.477L793.615 725.514L782.2 745.334H720.319L797.521 533.555H865.41L942.311 745.334H880.129L859.485 697.477ZM852.122 649.62L831.165 597.239L804.265 675.389L852.122 649.62Z" fill="#FF3030"></path>
</svg><style>@media (prefers-color-scheme: light) { :root { filter: none; } }
@media (prefers-color-scheme: dark) { :root { filter: none; } }
</style></svg>
